icons/circle/48/nautilus-scripts-manager.svg

<svg xmlns="http://www.w3.org/2000/svg" viewBox="0 0 48 48">
 <defs>
  <linearGradient id="linearGradient4177" gradientUnits="userSpaceOnUse" x2="-1" x1="-47">
   <stop style="stop-color:#6e6196"/>
   <stop offset="1" style="stop-color:#796ca0"/>
  </linearGradient>
 </defs>
 <g>
  <path d="m36.31 5c5.859 4.062 9.688 10.831 9.688 18.5 0 12.426-10.07 22.5-22.5 22.5-7.669 0-14.438-3.828-18.5-9.688 1.037 1.822 2.306 3.499 3.781 4.969 4.085 3.712 9.514 5.969 15.469 5.969 12.703 0 23-10.298 23-23 0-5.954-2.256-11.384-5.969-15.469-1.469-1.475-3.147-2.744-4.969-3.781zm4.969 3.781c3.854 4.113 6.219 9.637 6.219 15.719 0 12.703-10.297 23-23 23-6.081 0-11.606-2.364-15.719-6.219 4.16 4.144 9.883 6.719 16.219 6.719 12.703 0 23-10.298 23-23 0-6.335-2.575-12.06-6.719-16.219z" style="opacity:0.05"/>
  <path d="m41.28 8.781c3.712 4.085 5.969 9.514 5.969 15.469 0 12.703-10.297 23-23 23-5.954 0-11.384-2.256-15.469-5.969 4.113 3.854 9.637 6.219 15.719 6.219 12.703 0 23-10.298 23-23 0-6.081-2.364-11.606-6.219-15.719z" style="opacity:0.1"/>
  <path d="m31.25 2.375c8.615 3.154 14.75 11.417 14.75 21.13 0 12.426-10.07 22.5-22.5 22.5-9.708 0-17.971-6.135-21.12-14.75a23 23 0 0 0 44.875 -7 23 23 0 0 0 -16 -21.875z" style="opacity:0.2"/>
 </g>
 <ellipse rx="23" ry="23" transform="rotate(-90)" cy="24" cx="-24" style="fill:url(#linearGradient4177)"/>
 <g>
  <path d="m40.03 7.531c3.712 4.084 5.969 9.514 5.969 15.469 0 12.703-10.297 23-23 23-5.954 0-11.384-2.256-15.469-5.969 4.178 4.291 10.01 6.969 16.469 6.969 12.703 0 23-10.298 23-23 0-6.462-2.677-12.291-6.969-16.469z" style="opacity:0.1"/>
 </g>
 <g transform="matrix(1.0001 0 0 1.0001 -.001334 -.0013355)">
  <g>
   <g transform="translate(1,1)">
    <g style="opacity:0.1">
     <!-- color: #0a99d6 -->
     <g>
      <path d="m9 24c0-8.285 6.715-15 15-15 8.281 0 14.996 6.715 14.996 15 0 8.281-6.715 14.996-14.996 14.996-4.742 0-9.254-2.563-12-5.996h10v5l8-7.504-8-7.5v5h-12.531c-0.277-1.141-0.469-2.773-0.469-4m0.004 0.004"/>
     </g>
    </g>
   </g>
  </g>
 </g>
 <g transform="matrix(1.0001 0 0 1.0001 -.0012013 -.0012013)">
  <g>
   <!-- color: #0a99d6 -->
   <g>
    <path d="m9 24c0-8.285 6.715-15 15-15 8.281 0 14.996 6.715 14.996 15 0 8.281-6.715 14.996-14.996 14.996-4.742 0-9.254-2.563-12-5.996h10v5l8-7.504-8-7.5v5h-12.531c-0.277-1.141-0.469-2.773-0.469-4m0.004 0.004" style="fill:#ffca28"/>
   </g>
  </g>
 </g>
</svg>

<svg xmlns="http://www.w3.org/2000/svg" viewBox="0 0 48 48">
  <defs>
    <linearGradient id="a" gradientUnits="userSpaceOnUse" x2="-1" x1="-47">
      <stop stop-color="#6e6196"/>
      <stop offset="1" stop-color="#796ca0"/>
    </linearGradient>
  </defs>
  <path d="M36.31 5c5.859 4.062 9.688 10.831 9.688 18.5 0 12.426-10.07 22.5-22.5 22.5-7.669 0-14.438-3.828-18.5-9.688a23.24 23.24 0 0 0 3.781 4.969 22.923 22.923 0 0 0 15.469 5.969c12.703 0 23-10.298 23-23a22.92 22.92 0 0 0-5.969-15.469A23.216 23.216 0 0 0 36.31 5zm4.969 3.781A22.911 22.911 0 0 1 47.498 24.5c0 12.703-10.297 23-23 23a22.909 22.909 0 0 1-15.719-6.219C12.939 45.425 18.662 48 24.998 48c12.703 0 23-10.298 23-23 0-6.335-2.575-12.06-6.719-16.219z" opacity=".05"/>
  <path d="M41.28 8.781a22.923 22.923 0 0 1 5.969 15.469c0 12.703-10.297 23-23 23A22.92 22.92 0 0 1 8.78 41.281 22.911 22.911 0 0 0 24.499 47.5c12.703 0 23-10.298 23-23A22.909 22.909 0 0 0 41.28 8.781z" opacity=".1"/>
  <path d="M31.25 2.375C39.865 5.529 46 13.792 46 23.505c0 12.426-10.07 22.5-22.5 22.5-9.708 0-17.971-6.135-21.12-14.75a23 23 0 0 0 44.875-7 23 23 0 0 0-16-21.875z" opacity=".2"/>
  <ellipse rx="23" ry="23" transform="rotate(-90)" cy="24" cx="-24" fill="url(#a)"/>
  <path d="M40.03 7.531A22.922 22.922 0 0 1 45.999 23c0 12.703-10.297 23-23 23A22.92 22.92 0 0 1 7.53 40.031C11.708 44.322 17.54 47 23.999 47c12.703 0 23-10.298 23-23 0-6.462-2.677-12.291-6.969-16.469z" opacity=".1"/>
  <g>
    <path d="M10 25.001C10 16.715 16.715 10 25 10 33.283 10 40 16.715 40 25 39.999 33.283 33.283 40 25 40c-4.742 0-9.255-2.564-12.001-5.997h10.001v5l8-7.504-8-7.5v5H10.469c-.277-1.142-.47-2.774-.47-4m.005.003" opacity=".1"/>
  </g>
  <g>
    <path d="M9 24.001C9 15.715 15.715 9 24 9 32.283 9 39 15.715 39 24 38.999 32.283 32.283 39 24 39c-4.742 0-9.255-2.564-12.001-5.997h10.001v5l8-7.504-8-7.5v5H9.469c-.277-1.142-.47-2.774-.47-4m.005.003" fill="#ffca28"/>
  </g>
</svg>
